modules/framework7-icons/icons/social_instagram_fill.svg

<?xml version="1.0" encoding="UTF-8"?>
<svg width="50px" height="50px" viewBox="0 0 50 50" version="1.1" xmlns="http://www.w3.org/2000/svg" xmlns:xlink="http://www.w3.org/1999/xlink">
    <!-- Generator: Sketch 40.1 (33804) - http://www.bohemiancoding.com/sketch -->
    <title>social_instagram_fill</title>
    <desc>Created with Sketch.</desc>
    <defs></defs>
    <g id="Page-1" stroke="none" stroke-width="1" fill="none" fill-rule="evenodd">
        <g id="social_instagram_fill" fill="#000000">
            <path d="M0,13.9942738 C0,6.26544981 6.26927476,0 13.9942738,0 L36.0057262,0 C43.7345502,0 50,6.26927476 50,13.9942738 L50,36.0057262 C50,43.7345502 43.7307252,50 36.0057262,50 L13.9942738,50 C6.26544981,50 0,43.7307252 0,36.0057262 L0,13.9942738 Z M38.5,14 C39.8807119,14 41,12.8807119 41,11.5 C41,10.1192881 39.8807119,9 38.5,9 C37.1192881,9 36,10.1192881 36,11.5 C36,12.8807119 37.1192881,14 38.5,14 Z M36,25 C36,18.9248678 31.0751322,14 25,14 C18.9248678,14 14,18.9248678 14,25 C14,31.0751322 18.9248678,36 25,36 C31.0751322,36 36,31.0751322 36,25 Z M12,25 C12,17.8202983 17.8202983,12 25,12 C32.1797017,12 38,17.8202983 38,25 C38,32.1797017 32.1797017,38 25,38 C17.8202983,38 12,32.1797017 12,25 Z" id="Combined-Shape"></path>
        </g>
    </g>
</svg>

<svg width="50" height="50" viewBox="0 0 50 50" xmlns="http://www.w3.org/2000/svg"><path d="M0 13.994C0 6.265 6.27 0 13.994 0h22.012C43.735 0 50 6.27 50 13.994v22.012C50 43.735 43.73 50 36.006 50H13.994C6.265 50 0 43.73 0 36.006V13.994zM38.5 14a2.5 2.5 0 1 0 0-5 2.5 2.5 0 0 0 0 5zM36 25c0-6.075-4.925-11-11-11s-11 4.925-11 11 4.925 11 11 11 11-4.925 11-11zm-24 0c0-7.18 5.82-13 13-13s13 5.82 13 13-5.82 13-13 13-13-5.82-13-13z" fill="#000" fill-rule="evenodd"/></svg>
